public/assets/icons/icon.svg

<svg width="18" height="21" viewBox="0 0 18 21" fill="none" xmlns="http://www.w3.org/2000/svg">
<rect width="16" height="16" fill="#0059B3"/>
<g filter="url(#filter0_d_18_64)">
<path d="M7.374 13.182C6.674 13.0793 6.04867 12.8087 5.498 12.37C4.95667 11.9313 4.56933 11.3013 4.336 10.48L5.946 9.822C6.03933 10.1953 6.212 10.5313 6.464 10.83C6.716 11.1193 7.01933 11.32 7.374 11.432V8.772L7.248 8.716C6.90267 8.58533 6.576 8.43133 6.268 8.254C5.96933 8.07667 5.70333 7.87133 5.47 7.638C5.246 7.40467 5.064 7.14333 4.924 6.854C4.79333 6.55533 4.728 6.224 4.728 5.86C4.728 5.524 4.78867 5.20667 4.91 4.908C5.03133 4.60933 5.204 4.34333 5.428 4.11C5.66133 3.87667 5.94133 3.68533 6.268 3.536C6.59467 3.37733 6.96333 3.27467 7.374 3.228V2.024H8.62V3.256C8.99333 3.312 9.31533 3.41 9.586 3.55C9.866 3.69 10.104 3.85333 10.3 4.04C10.5053 4.21733 10.6687 4.40867 10.79 4.614C10.9113 4.81933 11.0047 5.02 11.07 5.216L9.502 5.916C9.43667 5.72933 9.334 5.552 9.194 5.384C9.054 5.216 8.86267 5.08067 8.62 4.978V7.484C9.02133 7.652 9.38533 7.82467 9.712 8.002C10.0387 8.17933 10.3187 8.38 10.552 8.604C10.7853 8.828 10.9627 9.08467 11.084 9.374C11.2053 9.654 11.266 9.98067 11.266 10.354C11.266 10.774 11.1913 11.1473 11.042 11.474C10.902 11.8007 10.7107 12.0807 10.468 12.314C10.2253 12.5473 9.94067 12.734 9.614 12.874C9.29667 13.014 8.96533 13.112 8.62 13.168V14.4H7.374V13.182ZM6.45 5.86C6.45 6.084 6.52 6.28 6.66 6.448C6.80933 6.60667 7.04733 6.77 7.374 6.938V4.894C7.094 4.96867 6.87 5.09 6.702 5.258C6.534 5.426 6.45 5.62667 6.45 5.86ZM9.474 10.368C9.474 10.1253 9.40867 9.92467 9.278 9.766C9.14733 9.60733 8.928 9.44867 8.62 9.29V11.432C8.872 11.348 9.07733 11.2173 9.236 11.04C9.39467 10.8533 9.474 10.6293 9.474 10.368Z" fill="white"/>
</g>
<defs>
<filter id="filter0_d_18_64" x="2.33606" y="0.0239868" width="14.9299" height="20.376" filterUnits="userSpaceOnUse" color-interpolation-filters="sRGB">
<feFlood flood-opacity="0" result="BackgroundImageFix"/>
<feColorMatrix in="SourceAlpha" type="matrix" values="0 0 0 0 0 0 0 0 0 0 0 0 0 0 0 0 0 0 127 0" result="hardAlpha"/>
<feOffset dx="2" dy="2"/>
<feGaussianBlur stdDeviation="2"/>
<feComposite in2="hardAlpha" operator="out"/>
<feColorMatrix type="matrix" values="0 0 0 0 0 0 0 0 0 0 0 0 0 0 0 0 0 0 0.15 0"/>
<feBlend mode="normal" in2="BackgroundImageFix" result="effect1_dropShadow_18_64"/>
<feBlend mode="normal" in="SourceGraphic" in2="effect1_dropShadow_18_64" result="shape"/>
</filter>
</defs>
</svg>

<svg xmlns="http://www.w3.org/2000/svg" width="16" height="16" fill="none" xmlns:v="https://vecta.io/nano"><g clip-path="url(#B)"><path fill="#fff" d="M0 0h16v16H0z"/><path fill="#0059b3" d="M0 0h16v16H0z"/><g filter="url(#A)"><path d="M7.374 13.182c-.7-.103-1.325-.373-1.876-.812-.541-.439-.929-1.069-1.162-1.89l1.61-.658c.093.373.266.709.518 1.008a1.98 1.98 0 0 0 .91.602v-2.66l-.126-.056a6.74 6.74 0 0 1-.98-.462c-.299-.177-.565-.383-.798-.616-.224-.233-.406-.495-.546-.784-.131-.299-.196-.63-.196-.994 0-.336.061-.653.182-.952a2.5 2.5 0 0 1 .518-.798 2.85 2.85 0 0 1 .84-.574 3.39 3.39 0 0 1 1.106-.308V2.024H8.62v1.232c.373.056.695.154.966.294.28.14.518.303.714.49.205.177.369.369.49.574a3.14 3.14 0 0 1 .28.602l-1.568.7c-.065-.187-.168-.364-.308-.532a1.48 1.48 0 0 0-.574-.406v2.506l1.092.518c.327.177.607.378.84.602s.411.481.532.77c.121.28.182.607.182.98 0 .42-.075.793-.224 1.12-.14.327-.331.607-.574.84s-.527.42-.854.56c-.317.14-.649.238-.994.294V14.4H7.374v-1.218zM6.45 5.86a.89.89 0 0 0 .21.588c.149.159.387.322.714.49V4.894c-.28.075-.504.196-.672.364a.82.82 0 0 0-.252.602zm3.024 4.508c0-.243-.065-.443-.196-.602s-.35-.317-.658-.476v2.142c.252-.084.457-.215.616-.392.159-.187.238-.411.238-.672z" fill="#fff"/></g></g><defs><filter id="A" x="2.336" y=".024" width="14.93" height="20.376" filterUnits="userSpaceOnUse" color-interpolation-filters="sRGB"><feFlood flood-opacity="0" result="A"/><feColorMatrix in="SourceAlpha" values="0 0 0 0 0 0 0 0 0 0 0 0 0 0 0 0 0 0 127 0" result="B"/><feOffset dx="2" dy="2"/><feGaussianBlur stdDeviation="2"/><feComposite in2="B" operator="out"/><feColorMatrix values="0 0 0 0 0 0 0 0 0 0 0 0 0 0 0 0 0 0 0.15 0"/><feBlend in2="A"/><feBlend in="SourceGraphic"/></filter><clipPath id="B"><path fill="#fff" d="M0 0h16v16H0z"/></clipPath></defs></svg>
